image/xmark-solid.svg

<svg xmlns="http://www.w3.org/2000/svg" viewBox="0 0 384 512"><!--! Font Awesome Pro 6.4.0 by @fontawesome - https://fontawesome.com License - https://fontawesome.com/license (Commercial License) Copyright 2023 Fonticons, Inc. --><path d="M342.6 150.6c12.5-12.5 12.5-32.8 0-45.3s-32.8-12.5-45.3 0L192 210.7 86.6 105.4c-12.5-12.5-32.8-12.5-45.3 0s-12.5 32.8 0 45.3L146.7 256 41.4 361.4c-12.5 12.5-12.5 32.8 0 45.3s32.8 12.5 45.3 0L192 301.3 297.4 406.6c12.5 12.5 32.8 12.5 45.3 0s12.5-32.8 0-45.3L237.3 256 342.6 150.6z"/></svg>

<?xml version="1.0" encoding="UTF-8" standalone="no" ?>
<!DOCTYPE svg PUBLIC "-//W3C//DTD SVG 1.1//EN" "http://www.w3.org/Graphics/SVG/1.1/DTD/svg11.dtd">
<svg xmlns="http://www.w3.org/2000/svg" xmlns:xlink="http://www.w3.org/1999/xlink" version="1.1" width="384" height="512" viewBox="0 0 384 512" xml:space="preserve">
<desc>Created with Fabric.js 5.3.0</desc>
<defs>
</defs>
<g transform="matrix(1 0 0 1 192 256)" id="lEh0FKE5k3qGIUW_-kWVf"  >
<path style="stroke:white;stroke-width: 5; stroke-dasharray: none; stroke-linecap: butt; stroke-dashoffset: 0; stroke-linejoin: miter; stroke-miterlimit: 4; stroke: white;fill-rule: nonzero; opacity: 1;filter: url(#SVGID_23);"  transform=" translate(-192, -256)" d="M 342.6 150.6 C 355.1 138.1 355.1 117.8 342.6 105.3 C 330.1 92.8 309.8 92.8 297.3 105.3 L 192 210.7 L 86.6 105.4 C 74.1 92.9 53.8 92.9 41.3 105.4 C 28.799999999999997 117.9 28.799999999999997 138.2 41.3 150.7 L 146.7 256 L 41.4 361.4 C 28.9 373.9 28.9 394.2 41.4 406.7 C 53.9 419.2 74.19999999999999 419.2 86.69999999999999 406.7 L 192 301.3 L 297.4 406.6 C 309.9 419.1 330.2 419.1 342.7 406.6 C 355.2 394.1 355.2 373.8 342.7 361.3 L 237.3 256 L 342.6 150.6 z" stroke-linecap="round" />
<filter id="SVGID_23" y="-21.24941434%" height="142.49882868%" x="-21.56176792%" width="143.12353584%" >
	<feGaussianBlur in="SourceAlpha" stdDeviation="0"></feGaussianBlur>
	<feOffset dx="5" dy="4" result="oBlur" ></feOffset>
	<feFlood flood-color="rgb(0,0,0)" flood-opacity="1"/>
	<feComposite in2="oBlur" operator="in" />
	<feMerge>
		<feMergeNode></feMergeNode>
		<feMergeNode in="SourceGraphic"></feMergeNode>
	</feMerge>
</filter>
<path style="stroke: rgb(0,0,0); stroke-width: 5; stroke-dasharray: none; stroke-linecap: butt; stroke-dashoffset: 0; stroke-linejoin: miter; stroke-miterlimit: 4; fill: rgb(249,135,111); fill-rule: nonzero; opacity: 1;"  transform=" translate(-192, -256)" d="M 342.6 150.6 C 355.1 138.1 355.1 117.8 342.6 105.3 C 330.1 92.8 309.8 92.8 297.3 105.3 L 192 210.7 L 86.6 105.4 C 74.1 92.9 53.8 92.9 41.3 105.4 C 28.799999999999997 117.9 28.799999999999997 138.2 41.3 150.7 L 146.7 256 L 41.4 361.4 C 28.9 373.9 28.9 394.2 41.4 406.7 C 53.9 419.2 74.19999999999999 419.2 86.69999999999999 406.7 L 192 301.3 L 297.4 406.6 C 309.9 419.1 330.2 419.1 342.7 406.6 C 355.2 394.1 355.2 373.8 342.7 361.3 L 237.3 256 L 342.6 150.6 z" stroke-linecap="round" />
</g>
</svg>
